X:1
T:Title
%%score 1 2 3 4
L:1/8
M:4/4
K:G
V:1 bass nm="Baryton, Bas" snm="Bar."
V:2 bass nm="Varhany, B.c. (Org)" snm="Varh."
V:3 bass nm="Kontrabas, B.c. (Vc)" snm="Kb."
V:4 bass-8 nm="B.c. (Cont)" snm="Bas"
V:1
 z8[Q:1/4=75] | z8 | z8 | z8 | z4 z2 z E, | CB, z (C/D/ E)C (A,/G,/)A, | DD,B,A, z (B,/C/ D)B, | %7
w: ||||Ent-|se- tze dich * , mein Her- * ze,|nicht, ent- se- tze dich * , mein|
 (G,/F,/)G, CA, (F,/E,/)F, A,F, | ^D,E, z (A,/B,/ C)A, (3:2:2(G,/F,/4(3G,/4F,/4G,/4F,/)D/ | %9
w: Her- * ze, nicht, mein Her- * ze, nicht, ent-|se- tze dich * , mein Her- * * * * * ze,|
 .B,2 z2 z2 (F,A,/G,/) | A,2 (B,A,) A,2 z D | (F,E,)(D^C) D2 z2 | z2 D2 (^CB,)((^A,B,)) | %13
w: nicht, Gott * *|ist dein * Trost und|Zu- * ver- * sicht|und dei- * ner *|
 (E, ^C2 D/E/ _B,3 ^G,/F,/ | ^CB,/^A,/ D2- D)(C/D/4B,/4) (A,>B,) | B,2 z2 z4 | z8 | z8 | %18
w: See- * * * * * *|* * * * * len * * Le- *|ben.|||
 z4 z2 A,2 | z2 D,E, (3:2:2(G,/F,/4(3:2:2G,/4F,/)(3:2:2(A,/G,/4(3:2:2A,/4G,/) (A,/F,/) (E,/D,/) | %20
w: Ja,|was sein wei- * * * ser * * * Rath * be- *|
 B,2 D2 z2 G,A, | B,CD B, E,2 z E, | (A,^G,) z (A,/B,/) CA, (F,/E,/) F, | B,,6 z A,, | %24
w: dacht, ja, was sein|wei- ser Rath be- dacht, ja,|was * sein * wei- ser Rath * be-|dacht, dem|
 (E,^D,) z B,, (G,F,) z B,, | (A,/F,/)G, G, E, (D^C) z A,, | %26
w: kann * die Welt * und|Men- * schen- Macht, die Welt * und|
 (G,/E,/)F, F, A, (A,F,) (G,/F,/E,/F,/4D,/4) | %27
w: Men- * schen- Macht, dem kann * die * * * *|
 (B,C/D/) z D, (E,A,) (3:2:2(G,/F,/4(3G,/4F,/4G,/4F,) | G,2 (A,^G,) A,2 (CB,) | %29
w: Welt * * und Men- * schen- * * * * *|Macht un- * mög- lich *|
 CE, (C2- C_B,/A,/ B,2- | %30
w: wi- der- stre- * * * *|
 B,/A,/D- D/C/_B,/A,/ ^G,/A,/G,/A,/ (3:2:2=B,/A,/4(3B,/4A,/4B,/4A,/G,/4A,/4 | %31
w: |
 B,)E, z E, (CB,)(B,^A,) | ^A,(B,/^C/) (E,2- E,>G, F,/E,/D,/E,/4^C,/4 | %33
w: * ben, un- mög- * lich *|wi- der- * stre- * * * * * * *|
 D,/B,,/A,- A,/^G,/A,/F,/ G,/B,/D,- D,/C,/D,/B,,/ | %34
w: |
 C,/A,,/=F,- F,/A,/4G,/4A,/F,/ ^D,/E,/D,/E,/ (3:2:2^F,/E,/4(3F,/4E,/4F,/4E,/D,/4E,/4 | %35
w: |
 F,2) B,, A, (A,F,)(G,E,) | (^A, B,2) E, (D,2 ^C,>B,,) | B,,2 z2 z4 | z8 | z8 | z8 | %41
w: * ben, un mög- * lich *|wi- * der- stre- * *|ben.||||
 z2 z E, CB, z (C/D/ | E) C (A,/G,/)A, D D,B,A, | z (B,/C/ D) B, (G,/F,/)G, C A, | %44
w: Ent- se- tze dich *|, mein Her- * ze, nicht, ent- se- tze|dich * , mein Her- * ze, nicht, mein|
 (F,/E,/)F, A, F, ^D,E, z (A,/B,/ | C) A, (3:2:2(G,/F,/4(3G,/4F,/4G,/4F,/)D/ B, z z2 | %46
w: Her- * ze, nicht, ent- se- tze dich *|, mein Her- * * * * * ze, nicht.|
 z2 (B,,D,/C,/) D,2 (E,D,) | D,2 z G, (CA,)(F,G,) | G,2 z2 z2 G,2 | (F,E,)(^D,E,) (A,3 B,/C/ | %50
w: Gott * * ist dein *|Trost, dein' Zu- * ver- *|sicht und|dei- * ner * See- * *|
 ^D,3 ^C,/B,,/ F,E,/D,/ B,2- | B,/A,/)(B,/C/) (^D,>E,) E,2 z2 | z8 | z8 | %54
w: |* * len * Le- * ben.|||
 z8[Q:1/4=74][Q:1/4=73][Q:1/4=72][Q:1/4=71][Q:1/4=70][Q:1/4=69] | %55
w: |
 z8[Q:1/4=68][Q:1/4=67][Q:1/4=66][Q:1/4=64][Q:1/4=63][Q:1/4=62][Q:1/4=60][Q:1/4=58][Q:1/4=56][Q:1/4=53][Q:1/4=51][Q:1/4=48][Q:1/4=43][Q:1/4=40][Q:1/4=36][Q:1/4=30] |] %56
w: |
V:2
 z4 z2 z E, | CB, z C/D/ EC A,/G,/A, | z D,B,A, z B,/C/ DB, | G,/F,/G, CA, F,/E,/F, A,F, | %4
 ^D,E,A,,B,, E,,2 z2 | z B,,G,E, z A,/B,/ CA, | F,/E,/F, G,D, B,G, z G,/A,/ | %7
 B,G, E,/^D,/E, A,F, D,/^C,/D, | G,E,CA, z B,/C/ DD, | G,D,B,A, z B,/^C/ DA, | %10
 F,/E,/F, G,E, ^C,/B,,/C, F,D, | B,,/A,,/B,, G,,A,, D,,2 z A,, | F,E, z F,/G,/ A,E, ^C,/B,,/C, | %13
 z G,,E,D, z E,/F,/ G,E, | _B,,/^G,,/=B,, z B,,/A,,/ =G,,E,,F,,F, | B,_B, z =B,/^C/ DB, ^G,/F,/G, | %16
 z E,A,^G, z A,/B,/ ^CA, | F,/E,/F, B,G, E,/D,/E, G,E, | ^C,D,G,,A,, D,,2 z A,, | %19
 F,E, z E,/G,/ A,F, D,/^C,/D, | G,D, B,,/A,,/B,, D,B,,G,,D, | =F,E, z B,/C/ DB, ^G,/^F,/G, | %22
 z E,CA, z F,/G,/ A,F, | ^D,/^C,/D, F,D, B,,/A,,/B,, D,B,, | G,,B,,E,^D, z F,/G,/ A,F, | %25
 ^D,/^C,/D, B,G, E,/=D,/E, G,E, | ^C,/B,,/C, A,F, D,/=C,/D, DB, | G,/F,/G, B,G, C,/B,,/C, A,,D, | %28
 G,,D,,C,B,, z C,/D,/ E,C, | A,,/^G,,/A,, A,=F, D,/C,/D, G,E, | %30
 C,/_B,,/C, =F,D, =B,,/A,,/B,, D,B,, | ^G,,A,,D,,E,, A,,2 z E, | ^CB, z C/D/ EC _B,/^G,/B, | %33
 B,F, ^D,/^C,/D, E,B,, ^G,,/F,,/G,, | E,C, A,,/^G,,/A,, A,E, C,/B,,/C, | %35
 B,F, ^D,/^C,/D, E,2 z G,, | E,D, G,/F,/G, F,E,F,F,, | B,,2 z B,, G,F, z F,/G,/ | %38
 A,F, ^D,/^C,/D, z E,CB, | z B,/C/ DB, ^G,/F,/G, CA, | F,/E,/F, A,F, ^D,E,A,,B,, | %41
 E,,2 z2 z E,,G,E, | z A,/B,/ CA, F,/E,/F, G,D, | B,G, z G,/A,/ B,^G, E,/^D,/E, | %44
 A,F, ^D,/^C,/D, G,E,CA, | z B,/C/ DD, G,G,,E,D, | z E,/F,/ G,D, B,,/A,,/B,, C,A,, | %47
 F,,/E,,/F,, B,,G,, E,,C,D,D,, | z G,,E,D, z E,/F,/ G,^C, | D,A,, F,,/E,,/F,, z B,,A,G, | %50
 z A,/B,/ CA, ^D,/^C,/D, F,A,, | G,,/F,,/G,,/A,,/ B,,B,, E,,2 z E, | CB, z C/D/ EC A,/G,/A, | %53
 z D,B,A, z B,/C/ DB, | G,/F,/G, CA, F,/E,/F, A,F, | ^D,E,A,,B,, E,,4 |] %56
V:3
 z4 z2 z E, | CB, z C/D/ EC A,/G,/A, | z D,B,A, z B,/C/ DB, | G,/F,/G, CA, F,/E,/F, A,F, | %4
 ^D,E,A,,B,, E,,2 z2 | z B,,G,E, z A,/B,/ CA, | F,/E,/F, G,D, B,G, z G,/A,/ | %7
 B,G, E,/^D,/E, A,F, D,/^C,/D, | G,E,CA, z B,/C/ DD, | G,D,B,A, z B,/^C/ DA, | %10
 F,/E,/F, G,E, ^C,/B,,/C, F,D, | B,,/A,,/B,, G,,A,, D,,2 z A,, | F,E, z F,/G,/ A,E, ^C,/B,,/C, | %13
 z G,,E,D, z E,/F,/ G,E, | _B,,/^G,,/=B,, z B,,/A,,/ =G,,E,,F,,F, | B,_B, z =B,/^C/ DB, ^G,/F,/G, | %16
 z E,A,^G, z A,/B,/ ^CA, | F,/E,/F, B,G, E,/D,/E, G,E, | ^C,D,G,,A,, D,,2 z A,, | %19
 F,E, z E,/G,/ A,F, D,/^C,/D, | G,D, B,,/A,,/B,, D,B,,G,,D, | =F,E, z B,/C/ DB, ^G,/^F,/G, | %22
 z E,CA, z F,/G,/ A,F, | ^D,/^C,/D, F,D, B,,/A,,/B,, D,B,, | G,,B,,E,^D, z F,/G,/ A,F, | %25
 ^D,/^C,/D, B,G, E,/=D,/E, G,E, | ^C,/B,,/C, A,F, D,/=C,/D, DB, | G,/F,/G, B,G, C,/B,,/C, A,,D, | %28
 G,,D,,C,B,, z C,/D,/ E,C, | A,,/^G,,/A,, A,=F, D,/C,/D, G,E, | %30
 C,/_B,,/C, =F,D, =B,,/A,,/B,, D,B,, | ^G,,A,,D,,E,, A,,2 z E, | ^CB, z C/D/ EC _B,/^G,/B, | %33
 B,F, ^D,/^C,/D, E,B,, ^G,,/F,,/G,, | E,C, A,,/^G,,/A,, A,E, C,/B,,/C, | %35
 B,F, ^D,/^C,/D, E,2 z G,, | E,D, G,/F,/G, F,E,F,F,, | B,,2 z B,, G,F, z F,/G,/ | %38
 A,F, ^D,/^C,/D, z E,CB, | z B,/C/ DB, ^G,/F,/G, CA, | F,/E,/F, A,F, ^D,E,A,,B,, | %41
 E,,2 z2 z E,,G,E, | z A,/B,/ CA, F,/E,/F, G,D, | B,G, z G,/A,/ B,^G, E,/^D,/E, | %44
 A,F, ^D,/^C,/D, G,E,CA, | z B,/C/ DD, G,G,,E,D, | z E,/F,/ G,D, B,,/A,,/B,, C,A,, | %47
 F,,/E,,/F,, B,,G,, E,,C,D,D,, | z G,,E,D, z E,/F,/ G,^C, | D,A,, F,,/E,,/F,, z B,,A,G, | %50
 z A,/B,/ CA, ^D,/^C,/D, F,A,, | G,,/F,,/G,,/A,,/ B,,B,, E,,2 z E, | CB, z C/D/ EC A,/G,/A, | %53
 z D,B,A, z B,/C/ DB, | G,/F,/G, CA, F,/E,/F, A,F, | ^D,E,A,,B,, E,,4 |] %56
V:4
 z4 z2 z E, | CB, z C/D/ EC A,/G,/A, | z D,B,A, z B,/C/ DB, | G,/F,/G, CA, F,/E,/F, A,F, | %4
 ^D,E,A,,B,, E,,2 z2 | z B,,G,E, z A,/B,/ CA, | F,/E,/F, G,D, B,G, z G,/A,/ | %7
 B,G, E,/^D,/E, A,F, D,/^C,/D, | G,E,CA, z B,/C/ DD, | G,D,B,A, z B,/^C/ DA, | %10
 F,/E,/F, G,E, ^C,/B,,/C, F,D, | B,,/A,,/B,, G,,A,, D,,2 z A,, | F,E, z F,/G,/ A,E, ^C,/B,,/C, | %13
 z G,,E,D, z E,/F,/ G,E, | _B,,/^G,,/=B,, z B,,/A,,/ =G,,E,,F,,F, | B,_B, z =B,/^C/ DB, ^G,/F,/G, | %16
 z E,A,^G, z A,/B,/ ^CA, | F,/E,/F, B,G, E,/D,/E, G,E, | ^C,D,G,,A,, D,,2 z A,, | %19
 F,E, z E,/G,/ A,F, D,/^C,/D, | G,D, B,,/A,,/B,, D,B,,G,,D, | =F,E, z B,/C/ DB, ^G,/^F,/G, | %22
 z E,CA, z F,/G,/ A,F, | ^D,/^C,/D, F,D, B,,/A,,/B,, D,B,, | G,,B,,E,^D, z F,/G,/ A,F, | %25
 ^D,/^C,/D, B,G, E,/=D,/E, G,E, | ^C,/B,,/C, A,F, D,/=C,/D, DB, | G,/F,/G, B,G, C,/B,,/C, A,,D, | %28
 G,,D,,C,B,, z C,/D,/ E,C, | A,,/^G,,/A,, A,=F, D,/C,/D, G,E, | %30
 C,/_B,,/C, =F,D, =B,,/A,,/B,, D,B,, | ^G,,A,,D,,E,, A,,2 z E, | ^CB, z C/D/ EC _B,/^G,/B, | %33
 B,F, ^D,/^C,/D, E,B,, ^G,,/F,,/G,, | E,C, A,,/^G,,/A,, A,E, C,/B,,/C, | %35
 B,F, ^D,/^C,/D, E,2 z G,, | E,D, G,/F,/G, F,E,F,F,, | B,,2 z B,, G,F, z F,/G,/ | %38
 A,F, ^D,/^C,/D, z E,CB, | z B,/C/ DB, ^G,/F,/G, CA, | F,/E,/F, A,F, ^D,E,A,,B,, | %41
 E,,2 z2 z E,,G,E, | z A,/B,/ CA, F,/E,/F, G,D, | B,G, z G,/A,/ B,^G, E,/^D,/E, | %44
 A,F, ^D,/^C,/D, G,E,CA, | z B,/C/ DD, G,G,,E,D, | z E,/F,/ G,D, B,,/A,,/B,, C,A,, | %47
 F,,/E,,/F,, B,,G,, E,,C,D,D,, | z G,,E,D, z E,/F,/ G,^C, | D,A,, F,,/E,,/F,, z B,,A,G, | %50
 z A,/B,/ CA, ^D,/^C,/D, F,A,, | G,,/F,,/G,,/A,,/ B,,B,, E,,2 z E, | CB, z C/D/ EC A,/G,/A, | %53
 z D,B,A, z B,/C/ DB, | G,/F,/G, CA, F,/E,/F, A,F, | ^D,E,A,,B,, E,,4 |] %56

